src/assets/images/prototype/main-image/1-lave-linge.svg

<svg width="456" height="617" viewBox="0 0 456 617" fill="none" xmlns="http://www.w3.org/2000/svg">
<rect x="2" y="2" width="452" height="613" rx="5" fill="white" stroke="#D9D9D9" stroke-width="4" stroke-linejoin="round"/>
<circle cx="229" cy="311" r="174" fill="white" stroke="#D9D9D9" stroke-width="4" stroke-linejoin="round"/>
<circle cx="229" cy="311" r="141" fill="white" stroke="#D9D9D9" stroke-width="4" stroke-linejoin="round"/>
<path d="M329.578 259.573L378.438 232.525C380.926 231.148 384.062 232.12 385.237 234.71C391.07 247.575 400.674 273.146 402.5 302C404.8 338.343 392.709 371.3 384.141 389.577C382.981 392.051 380.023 393.047 377.561 391.861L329.83 368.863C328.1 368.03 327 366.279 327 364.359V263.947C327 262.129 327.987 260.453 329.578 259.573Z" fill="white" stroke="#D9D9D9" stroke-width="4" stroke-linejoin="round"/>
<circle cx="402.502" cy="51.119" r="27.119" fill="white" stroke="#D9D9D9" stroke-width="4" stroke-linejoin="round"/>
<circle cx="402.504" cy="51.1209" r="20.7381" fill="white" stroke="#D9D9D9" stroke-width="4" stroke-linejoin="round"/>
<path d="M20 74V27C20 24.2386 22.2386 22 25 22H114C116.761 22 119 24.2386 119 27V65.6375C119 67.714 117.717 69.5744 115.775 70.3117L93.7578 78.6742C93.1907 78.8896 92.5891 79 91.9825 79H25C22.2386 79 20 76.7614 20 74Z" fill="white" stroke="#D9D9D9" stroke-width="4" stroke-linejoin="round"/>
<rect x="205" y="30" width="82" height="43" rx="5" fill="white" stroke="#D9D9D9" stroke-width="4"/>
</svg>

<svg width="456" height="617" fill="none" xmlns="http://www.w3.org/2000/svg"><rect x="2" y="2" width="452" height="613" rx="5" fill="#fff" stroke="#D9D9D9" stroke-width="4" stroke-linejoin="round"/><circle cx="229" cy="311" r="174" fill="#fff" stroke="#D9D9D9" stroke-width="4" stroke-linejoin="round"/><circle cx="229" cy="311" r="141" fill="#fff" stroke="#D9D9D9" stroke-width="4" stroke-linejoin="round"/><path d="M329.578 259.573l48.86-27.048c2.488-1.377 5.624-.405 6.799 2.185 5.833 12.865 15.437 38.436 17.263 67.29 2.3 36.343-9.791 69.3-18.359 87.577-1.16 2.474-4.118 3.47-6.58 2.284l-47.731-22.998a5 5 0 01-2.83-4.504V263.947c0-1.818.987-3.494 2.578-4.374z" fill="#fff" stroke="#D9D9D9" stroke-width="4" stroke-linejoin="round"/><circle cx="402.502" cy="51.119" r="27.119" fill="#fff" stroke="#D9D9D9" stroke-width="4" stroke-linejoin="round"/><circle cx="402.504" cy="51.121" r="20.738" fill="#fff" stroke="#D9D9D9" stroke-width="4" stroke-linejoin="round"/><path d="M20 74V27a5 5 0 015-5h89a5 5 0 015 5v38.638a5 5 0 01-3.225 4.674l-22.017 8.362a5 5 0 01-1.775.326H25a5 5 0 01-5-5z" fill="#fff" stroke="#D9D9D9" stroke-width="4" stroke-linejoin="round"/><rect x="205" y="30" width="82" height="43" rx="5" fill="#fff" stroke="#D9D9D9" stroke-width="4"/></svg>
